icons-rebrand/svg/add-option-regular.svg

<svg width="32" height="32" viewBox="0 0 32 32" fill="none" xmlns="http://www.w3.org/2000/svg">
<path d="M29 6.25H25.75V3C25.75 2.80109 25.671 2.61032 25.5303 2.46967C25.3897 2.32902 25.1989 2.25 25 2.25C24.8011 2.25 24.6103 2.32902 24.4697 2.46967C24.329 2.61032 24.25 2.80109 24.25 3V6.25H21C20.8011 6.25 20.6103 6.32902 20.4697 6.46967C20.329 6.61032 20.25 6.80109 20.25 7C20.25 7.19891 20.329 7.38968 20.4697 7.53033C20.6103 7.67098 20.8011 7.75 21 7.75H24.25V11C24.25 11.1989 24.329 11.3897 24.4697 11.5303C24.6103 11.671 24.8011 11.75 25 11.75C25.1989 11.75 25.3897 11.671 25.5303 11.5303C25.671 11.3897 25.75 11.1989 25.75 11V7.75H29C29.1989 7.75 29.3897 7.67098 29.5303 7.53033C29.671 7.38968 29.75 7.19891 29.75 7C29.75 6.80109 29.671 6.61032 29.5303 6.46967C29.3897 6.32902 29.1989 6.25 29 6.25Z" fill="#0F0F0F"/>
<path d="M22.2359 13.323C22.147 13.2804 22.0505 13.2559 21.9521 13.2507C21.8536 13.2455 21.7551 13.2599 21.6622 13.2928C21.5693 13.3258 21.4838 13.3768 21.4107 13.4429C21.3375 13.509 21.2781 13.5889 21.2359 13.678L19.4199 17.49C19.313 17.7135 19.255 17.9573 19.2499 18.205V20.25H16.7499V14C16.7499 13.8011 16.6709 13.6103 16.5302 13.4696C16.3896 13.329 16.1988 13.25 15.9999 13.25C15.801 13.25 15.6102 13.329 15.4696 13.4696C15.3289 13.6103 15.2499 13.8011 15.2499 14V20.25H12.7499V18.178C12.7413 17.9402 12.6841 17.7068 12.5819 17.492L10.2259 12.552C9.98506 11.9661 9.83468 11.347 9.77991 10.716C9.68252 9.81886 9.77559 8.9113 10.053 8.05263C10.3305 7.19395 10.786 6.40351 11.3899 5.73298C11.9794 5.09268 12.6981 4.58482 13.4985 4.24298C14.2989 3.90113 15.1627 3.7331 16.0329 3.74998C16.9482 3.74456 17.8536 3.93909 18.6859 4.31998C18.8646 4.39283 19.0644 4.39403 19.2439 4.32332C19.4235 4.25262 19.5688 4.11545 19.6498 3.94033C19.7308 3.76521 19.7412 3.56562 19.6788 3.38304C19.6165 3.20046 19.4861 3.04894 19.3149 2.95998C18.2654 2.47986 17.1229 2.23742 15.9689 2.24998C14.9004 2.23872 13.8416 2.45308 12.8616 2.87905C11.8816 3.30502 11.0026 3.93302 10.2819 4.72198C9.54229 5.54987 8.98291 6.52251 8.6393 7.57815C8.29568 8.63379 8.17534 9.74934 8.28591 10.854C8.35591 11.648 8.54891 12.427 8.85691 13.164L11.2269 18.135C11.2369 18.157 11.2449 18.181 11.2509 18.205V24.953C11.2332 25.5839 11.3437 26.2118 11.5755 26.7989C11.8073 27.3859 12.1557 27.9199 12.5996 28.3685C13.0436 28.8172 13.5739 29.1712 14.1585 29.4091C14.7431 29.6471 15.3698 29.764 16.0009 29.753C16.632 29.764 17.2587 29.6471 17.8433 29.4091C18.4279 29.1712 18.9582 28.8172 19.4022 28.3685C19.8461 27.9199 20.1945 27.3859 20.4264 26.7989C20.6582 26.2118 20.7686 25.5839 20.7509 24.953L20.7729 18.137L22.5909 14.322C22.6763 14.1425 22.687 13.9365 22.6206 13.7492C22.5542 13.5619 22.4162 13.4086 22.2369 13.323H22.2359ZM19.2499 21.75V24.252H12.7499V21.75H19.2499ZM15.9999 28.252C15.2665 28.2645 14.5514 28.0221 13.9768 27.5662C13.4021 27.1103 13.0035 26.4691 12.8489 25.752H19.1529C18.9985 26.4693 18.5998 27.1108 18.0249 27.5668C17.45 28.0227 16.7346 28.2649 16.0009 28.252H15.9999Z" fill="#0F0F0F"/>
</svg>

<svg width="32" height="32" viewBox="0 0 32 32" fill="none" xmlns="http://www.w3.org/2000/svg"><path d="M29 6.25h-3.25V3a.75.75 0 1 0-1.5 0v3.25H21a.75.75 0 1 0 0 1.5h3.25V11a.75.75 0 1 0 1.5 0V7.75H29a.75.75 0 1 0 0-1.5z" fill="#0F0F0F"/><path d="M22.236 13.323a.749.749 0 0 0-1 .355L19.42 17.49a1.74 1.74 0 0 0-.17.715v2.045h-2.5V14a.75.75 0 1 0-1.5 0v6.25h-2.5v-2.072a1.744 1.744 0 0 0-.168-.686l-2.356-4.94a6.25 6.25 0 0 1-.446-1.836 6.412 6.412 0 0 1 1.61-4.983 6.149 6.149 0 0 1 4.643-1.983 6.286 6.286 0 0 1 2.653.57.75.75 0 0 0 .629-1.36 7.838 7.838 0 0 0-3.346-.71 7.594 7.594 0 0 0-5.687 2.472 8.007 8.007 0 0 0-1.996 6.132c.07.794.263 1.573.571 2.31l2.37 4.971c.01.022.018.046.024.07v6.748a4.67 4.67 0 0 0 4.75 4.8 4.67 4.67 0 0 0 4.75-4.8l.022-6.816 1.818-3.815a.75.75 0 0 0-.354-.999zM19.25 21.75v2.502h-6.5V21.75h6.5zM16 28.252a3.168 3.168 0 0 1-3.151-2.5h6.304a3.167 3.167 0 0 1-3.152 2.5z" fill="#0F0F0F"/></svg>
